frontend/public/svg/health/medical-logo.svg

<svg width="152" height="162" viewBox="0 0 152 162" fill="none" xmlns="http://www.w3.org/2000/svg">
<g clip-path="url(#clip0)">
<path d="M71.0822 33.4387V23.7669C67.8662 22.3886 64.9083 20.4466 63.7315 16.6917C63.0454 14.2964 63.1791 11.7404 64.1119 9.42984C65.8682 4.47778 72.1882 0.776039 77.937 1.30767C82.5714 1.73626 85.7343 4.79691 86.3966 9.49233C87.5491 17.6605 85.4305 21.582 78.086 24.4404C77.9672 26.3811 77.8406 28.4571 77.6738 31.1776C79.6376 29.6916 81.0986 28.5319 82.6161 27.4509C84.7557 25.8183 86.9774 24.2961 89.272 22.8901C96.6886 18.6816 103.866 19.4863 110.811 24.1673C113.971 26.2971 117.173 28.3718 120.426 30.3559C126.288 33.9368 132.857 36.2056 139.679 37.0059C141.457 37.2382 143.216 37.6076 144.937 38.1111C151.142 39.8701 152.702 45.4353 148.096 49.8813C141.715 56.0404 133.816 59.1856 125.127 60.0329C116.271 60.8347 107.344 60.2047 98.6878 58.1669C92.6699 56.8037 86.6158 55.6007 80.5729 54.3516C79.3875 54.1062 78.1786 53.9762 76.835 53.7708V83.7652C81.4169 82.0062 85.5184 80.5761 88.3761 77.0811C89.4006 75.7592 90.1239 74.2293 90.4948 72.5983C91.1452 69.8922 90.3707 69.0416 87.9265 67.6246C85.9109 66.4329 84.037 65.0155 82.3417 63.3998C81.7031 62.8288 81.2752 62.0597 81.1262 61.2161C80.9779 60.3725 81.117 59.5034 81.522 58.7484C81.8357 57.9496 82.4218 57.2876 83.1772 56.8802C83.9327 56.4729 84.8076 56.3466 85.6477 56.5235C87.5642 56.8996 89.757 57.3957 91.1609 58.6113C101.592 67.6469 99.7635 79.5699 90.9247 86.2961C89.1525 87.6468 87.2012 88.7705 85.0682 90.1724C86.0723 90.5071 86.879 90.7848 87.6935 91.0453C91.6919 92.2195 95.4035 94.2082 98.5953 96.8867C103.906 101.532 104.469 107.466 100.096 112.984C96.2233 117.872 91.0454 120.964 85.3537 123.275C83.724 123.936 82.0582 124.508 79.9776 125.281C81.478 126.353 82.6686 127.114 83.7581 128C87.8366 131.314 90.3871 135.295 89.1479 140.849C88.8191 142.332 88.1759 143.727 87.2616 144.94C86.348 146.153 85.1843 147.157 83.85 147.882C82.3549 148.773 81.0054 149.907 79.3672 151.092C81.3323 151.992 82.9114 152.569 84.3403 153.412C85.6149 154.166 86.795 155.261 86.0973 156.982C85.4199 158.654 83.8861 158.87 82.4015 158.407C79.8568 157.612 77.3772 156.613 74.7105 155.643C73.8691 157.761 73.9413 160.889 70.9799 160.884C69.6101 160.884 68.2436 159.1 66.5259 157.876C65.6551 158.189 64.2249 158.798 62.7403 159.211C61.5109 159.553 60.1404 159.55 59.5432 158.165C58.9584 156.808 59.8327 155.759 60.8927 155.037C62.4502 153.976 64.097 153.046 65.3348 152.288C62.2934 150.565 59.0912 148.968 56.1166 147.022C48.4375 142 49.5222 133.852 53.8678 128.657C54.5137 127.885 55.2277 127.17 56.1788 126.138C49.5498 122.41 43.8208 117.888 43.7276 109.572C43.6377 101.505 48.1058 95.9396 54.9613 91.6761C54.0424 90.9291 53.3469 90.4389 52.7398 89.8567C51.3049 88.6077 49.9624 87.2563 48.7229 85.8123C44.4974 80.37 44.0869 74.6159 47.4916 68.5507C50.3139 63.5188 54.5431 60.1983 59.6816 57.888C61.8849 56.8976 63.6093 57.3143 64.7762 58.9492C65.0781 59.3607 65.2941 59.8287 65.4114 60.3254C65.5288 60.822 65.5449 61.3372 65.4592 61.8403C65.3735 62.3433 65.1877 62.824 64.9125 63.2537C64.6373 63.6834 64.2785 64.0534 63.8574 64.3418C62.1458 65.6084 60.2823 66.6558 58.3106 67.4598C56.9459 67.9705 55.7235 68.8007 54.7466 69.8817C53.7696 70.9627 53.0667 72.2622 52.6965 73.6714C52.3936 74.6362 52.2895 75.6522 52.3911 76.6577C52.4926 77.6639 52.7975 78.6386 53.2872 79.5227C55.7254 84.0297 59.916 86.1976 64.5622 87.3331C66.1978 87.7328 68.2003 86.6334 70.3892 86.1385C70.6733 75.6115 70.9536 65.2423 71.2457 54.4284C69.9901 54.4457 68.7365 54.5321 67.4901 54.687C58.4326 56.339 49.3811 57.993 40.344 59.7408C32.143 61.3246 23.9416 62.5034 15.6166 60.7293C11.1863 59.7855 6.93172 58.3993 3.40128 55.4129C1.42439 53.7393 -0.102926 51.7197 0.899958 48.9808C1.3508 47.6143 2.19935 46.4134 3.33655 45.5318C5.58396 44.0602 7.97858 42.8271 10.4819 41.8524C19.1305 38.4605 27.1043 33.9953 34.0444 27.7647C35.5474 26.4153 37.1386 25.1624 38.7105 23.8924C42.0723 21.1738 45.8527 20.3836 50.092 21.2467C56.4585 22.5416 61.5824 26.1566 66.6664 29.8656C68.0782 30.8941 69.3941 32.0657 71.0822 33.4387ZM76.5607 47.8375C82.2997 48.7098 87.6206 49.4127 92.9035 50.3447C101.74 51.9101 110.54 53.5161 119.598 53.2063C126.351 53.0012 132.934 51.0344 138.692 47.5008C139.488 46.925 140.245 46.2957 140.957 45.6177C138.22 45.0467 135.919 44.695 133.692 44.08C124.276 41.4803 115.85 36.9147 108.062 31.0799C102.251 26.7264 98.1194 26.6102 92.026 30.5194C91.0763 31.116 90.16 31.7636 89.2805 32.4595C85.7901 35.2745 82.3942 38.2116 78.8178 40.9112C77.41 41.9731 76.6966 43.0771 76.7615 44.8091C76.7484 45.8221 76.6821 46.8336 76.5607 47.8394V47.8375ZM71.6277 43.927C69.0253 41.9882 66.9841 40.6394 65.139 39.0609C60.8358 35.288 55.9877 32.1867 50.7582 29.8617C47.065 28.2648 43.7109 28.4887 40.5671 31.481C31.8424 39.7843 21.6516 45.7602 10.3678 49.9201C9.24393 50.4343 8.15165 51.0148 7.09672 51.6587C9.30989 52.6268 10.7985 53.3921 12.3619 53.9421C19.3341 56.3968 26.4519 56.3049 33.5903 54.8859C42.3852 53.14 51.1434 51.2432 59.9357 49.5039C63.7543 48.7478 67.6148 48.2202 71.6277 47.5612V43.927ZM70.0787 96.508C65.0907 96.5159 57.2205 100.245 54.5341 103.753C51.5688 107.625 51.5313 112.416 55.2212 115.115C58.3979 117.439 62.2006 118.999 65.8905 120.497C67.876 121.301 69.2832 120.044 69.4066 117.852C69.6875 112.832 69.8871 107.81 70.063 102.784C70.1397 100.691 70.0787 98.5958 70.0787 96.508ZM77.1337 117.597C79.6429 116.656 81.9801 115.918 84.1985 114.918C87.7979 113.295 91.111 111.192 93.659 108.101C95.4396 105.94 95.4311 104.679 93.4023 102.909C88.8263 98.9161 83.3046 97.568 77.1337 97.1939V117.597ZM68.3473 130.461C64.2124 129.923 59.5556 133.021 58.8468 136.32C58.6728 137.033 58.7097 137.782 58.9529 138.474C59.196 139.167 59.6349 139.774 60.2165 140.223C62.408 142.08 64.652 143.875 67.2446 145.999C67.6312 140.551 67.9824 135.603 68.3473 130.464V130.461ZM79.4814 13.9481C79.5123 9.64184 77.9607 8.25579 73.283 7.94796C71.1702 7.80882 69.7197 8.88581 69.1762 12.6145C68.7385 15.6139 71.1971 17.7995 75.0104 18.0411C78.512 18.2662 79.4597 17.4012 79.4814 13.9508V13.9481ZM75.714 133.389C75.4856 135.631 75.1712 137.836 75.0577 140.051C74.9448 142.303 75.0327 144.564 75.0327 147.154C77.7986 145.571 79.0226 143.424 79.9362 140.984C81.4852 136.858 80.4101 134.796 75.714 133.392V133.389Z" fill="black"/>
</g>
<defs>
<clipPath id="clip0">
<rect width="150.958" height="160.146" fill="white" transform="translate(0.305664 0.977173)"/>
</clipPath>
</defs>
</svg>

<svg xmlns="http://www.w3.org/2000/svg" width="152" height="162" fill="none" viewBox="0 0 152 162"><g clip-path="url(#a)"><path fill="#000" d="M71.082 33.439v-9.672c-3.216-1.378-6.174-3.32-7.35-7.075a11.18 11.18 0 0 1 .38-7.262c1.756-4.952 8.076-8.654 13.825-8.122 4.634.428 7.797 3.489 8.46 8.184 1.152 8.168-.967 12.09-8.311 14.948l-.412 6.738c1.964-1.486 3.425-2.646 4.942-3.727a79 79 0 0 1 6.656-4.56c7.417-4.21 14.594-3.405 21.539 1.276 3.16 2.13 6.362 4.205 9.615 6.189a47.6 47.6 0 0 0 19.253 6.65 35 35 0 0 1 5.258 1.105c6.205 1.76 7.765 7.324 3.159 11.77-6.381 6.16-14.28 9.305-22.969 10.152a82.8 82.8 0 0 1-26.44-1.866c-6.017-1.363-12.071-2.566-18.114-3.815-1.185-.246-2.394-.376-3.738-.581v29.994c4.582-1.759 8.683-3.189 11.541-6.684a11.5 11.5 0 0 0 2.119-4.483c.65-2.706-.124-3.556-2.568-4.973a31 31 0 0 1-5.585-4.225 3.82 3.82 0 0 1-.82-4.652 3.63 3.63 0 0 1 4.126-2.224c1.916.376 4.109.872 5.513 2.087 10.431 9.036 8.602 20.959-.236 27.685-1.772 1.35-3.724 2.474-5.857 3.876 1.004.335 1.811.613 2.626.873a30.2 30.2 0 0 1 10.901 5.842c5.311 4.645 5.874 10.579 1.501 16.097-3.873 4.888-9.05 7.98-14.742 10.291-1.63.661-3.296 1.233-5.376 2.006 1.5 1.072 2.69 1.833 3.78 2.719 4.079 3.314 6.63 7.295 5.39 12.849a10.62 10.62 0 0 1-5.298 7.033c-1.495.891-2.845 2.025-4.483 3.21 1.965.9 3.544 1.477 4.973 2.32 1.275.754 2.455 1.849 1.757 3.57-.677 1.672-2.21 1.888-3.695 1.425-2.545-.795-5.025-1.794-7.692-2.764-.84 2.118-.769 5.246-3.73 5.241-1.37 0-2.736-1.784-4.454-3.008-.87.313-2.301.922-3.786 1.335-1.23.342-2.6.339-3.197-1.046-.585-1.357.29-2.406 1.35-3.128 1.557-1.061 3.204-1.991 4.442-2.749-3.042-1.723-6.244-3.32-9.218-5.266-7.68-5.022-6.595-13.17-2.25-18.365.647-.772 1.36-1.487 2.312-2.519-6.63-3.728-12.358-8.25-12.451-16.566-.09-8.067 4.378-13.632 11.233-17.896-.919-.747-1.614-1.237-2.221-1.82a39 39 0 0 1-4.017-4.044q-6.339-8.163-1.231-17.261c2.822-5.032 7.051-8.353 12.19-10.663 2.203-.99 3.927-.574 5.094 1.061a3.805 3.805 0 0 1-.919 5.393 25.5 25.5 0 0 1-5.546 3.118 9.1 9.1 0 0 0-5.614 6.211 7.47 7.47 0 0 0 .59 5.852c2.438 4.507 6.629 6.675 11.275 7.81 1.636.4 3.638-.7 5.827-1.195l.857-31.71a34 34 0 0 0-3.756.259c-9.057 1.652-18.109 3.306-27.146 5.054-8.201 1.584-16.402 2.762-24.727.988-4.43-.944-8.685-2.33-12.216-5.316C1.424 53.739-.103 51.72.9 48.98a7.23 7.23 0 0 1 2.437-3.45 38.6 38.6 0 0 1 7.145-3.679c8.649-3.391 16.622-7.857 23.562-14.087 1.503-1.35 3.095-2.603 4.667-3.873 3.361-2.718 7.142-3.508 11.381-2.645 6.367 1.295 11.49 4.91 16.574 8.619 1.412 1.028 2.728 2.2 4.416 3.573m5.479 14.398c5.739.873 11.06 1.576 16.342 2.508 8.837 1.565 17.637 3.171 26.695 2.861a38.76 38.76 0 0 0 19.094-5.705 22 22 0 0 0 2.265-1.883c-2.737-.571-5.038-.923-7.265-1.538-9.416-2.6-17.842-7.165-25.63-13-5.811-4.354-9.943-4.47-16.036-.56a31 31 0 0 0-2.745 1.94c-3.49 2.815-6.887 5.752-10.463 8.451-1.408 1.062-2.121 2.166-2.056 3.898a28 28 0 0 1-.201 3.03zm-4.933-3.91c-2.603-1.939-4.644-3.288-6.489-4.866a56.8 56.8 0 0 0-14.38-9.2c-3.694-1.596-7.048-1.372-10.192 1.62-8.725 8.303-18.915 14.28-30.2 18.44a31 31 0 0 0-3.27 1.738c2.213.968 3.702 1.733 5.265 2.283 6.972 2.455 14.09 2.363 21.228.944 8.795-1.746 17.553-3.643 26.346-5.382 3.818-.756 7.679-1.284 11.692-1.943zm-1.55 52.581c-4.987.008-12.858 3.737-15.544 7.245-2.965 3.872-3.003 8.663.687 11.362 3.177 2.324 6.98 3.884 10.67 5.382 1.985.804 3.392-.453 3.516-2.645.28-5.02.48-10.042.656-15.068.077-2.093.016-4.188.016-6.276m7.056 21.089c2.509-.941 4.846-1.679 7.064-2.679 3.6-1.623 6.913-3.726 9.461-6.817 1.78-2.161 1.772-3.422-.257-5.192-4.576-3.993-10.097-5.341-16.268-5.715zm-8.787 12.864c-4.135-.538-8.791 2.56-9.5 5.859a3.79 3.79 0 0 0 1.37 3.903c2.191 1.857 4.435 3.652 7.028 5.776l1.102-15.535zM79.481 13.948c.031-4.306-1.52-5.692-6.198-6-2.113-.14-3.563.938-4.107 4.666-.437 3 2.021 5.185 5.834 5.427 3.502.225 4.45-.64 4.471-4.09zM75.714 133.39c-.228 2.242-.543 4.447-.656 6.662-.113 2.252-.025 4.513-.025 7.103 2.766-1.583 3.99-3.73 4.903-6.17 1.55-4.126.474-6.188-4.222-7.592z"/></g><defs><clipPath id="a"><path fill="#fff" d="M.306.977h150.958v160.146H.306z"/></clipPath></defs></svg>
